X: 2193
T: Polonäs efter John Johansson
B: [[Notböcker/John Johanssons noter]] [[http://www.sormlandsmusikarkiv.se/noter/johansson_john/john_johansson.html|samling 2]], nr 71 (sida 65)
O: Södermanland
R: Polonäs
N: Se även [[Musik/1368|+]]
Z: Nils
M: 3/4
L: 1/16
K: G
(GA).B.c .d2.e.f .g2.g2 | (fa).f.d (eg).e.^c d4 | .d2.d.B (cB).c.A B2B2 | (Ac).A.F G2D2 B,2D2 |
(GA).B.c .d2.e.f g2g2 | (fa)fd (eg)e^c d4 | .d2.d."^?"c (cB)cA B2B2 | (Ac)AF G4 G4 ::
BdBG (Ac)AF G2G2 | BdBG AcAF G4 | BdBG (Ac)AF G2G2 | BdBG AcAF G4 |
(GA)Bc d2ef g2g2 | (fa)fd (eg)e^c d4 | d2dB (cB)cA B2B2 | (Ac)AF G4 G4 |
(:musicend:)
(:music:)
